; generated by SuperSlicer 2.4 on 2022-10-06 at 08:11:51 UTC


;
;

;
;
; 

; external perimeters extrusion width = 0.50mm
; perimeters extrusion width = 0.50mm
; infill extrusion width = 0.50mm
; solid infill extrusion width = 0.50mm
; top infill extrusion width = 0.50mm
; first layer extrusion width = 0.50mm

; object:{"name":"benchy","id":"benchy.stl id:0 copy 0","object_center":[112.500000,110.000000,0.000000],"boundingbox_center":[112.500000,110.000000,24.000000],"boundingbox_size":[60.000000,31.001999,48.000000]}
; plater:{"center":[112.500000,110.000000,0.000000],"boundingbox_center":[112.500000,110.000000,24.000000],"boundingbox_size":[60.000000,31.001999,48.000000]}

;TYPE:Custom
PRINT_START


; Pre-Processed for Cancel-Object support by preprocess_cancellation v0.2.0
; 1 known objects
EXCLUDE_OBJECT_DEFINE NAME=benchy_stl_id_0_copy_0 CENTER=116.134,109.997 POLYGON=[[82.75,94.749],[82.75,125.251],[142.246,125.251],[142.246,94.749]]
M107
G21 ; set units to millimeters
G90 ; use absolute coordinates
M82 ; use absolute distances for extrusion
G92 E0
; Filament gcode
M104 S255 ; set temperature
M109 S255 ; set temperature and wait for it to be reached
M190 S60 ; set bed temperature and wait for it to be reached
M107
;LAYER_CHANGE
;Z:0.25
;HEIGHT:0.25
G1 Z0.25 F24000
G1 X83.419 Y98.638
;TYPE:Skirt
;WIDTH:0.5
G1 F12000
G1 X82.156 Y99.845 E0.08102
G1 X81.226 Y101.222 E0.1581
G1 X80.586 Y102.795 E0.2369
G1 X80.364 Y103.769 E0.28323
G1 X80.262 Y104.746 E0.32881
G1 X80.054 Y110.121 E0.57835
G1 X80.347 Y116.119 E0.85697
G1 X80.583 Y117.196 E0.90809
G1 X80.957 Y118.227 E0.95902
G1 X81.499 Y119.251 E1.01275
G1 X82.145 Y120.142 E1.0638
G1 X83.089 Y121.095 E1.12603
G1 X84.362 Y121.984 E1.19803
G1 X85.592 Y122.547 E1.26081
G1 X87.074 Y122.927 E1.33181
G1 X110.787 Y124.412 E2.43404
G1 X113.079 Y124.473 E2.54042
G1 X114.804 Y124.36 E2.62064
G1 X116.622 Y124.086 E2.70592
G1 X118.372 Y123.668 E2.78942
G1 X120.151 Y123.077 E2.87636
G1 X121.519 Y122.499 E2.94526
G1 X123.118 Y121.671 E3.02881
G1 X126.632 Y119.343 E3.22435
G1 X127.522 Y118.606 E3.27796
G1 X128.202 Y117.912 E3.32304
G1 X128.882 Y117.155 E3.37024
G1 X129.576 Y116.2 E3.42504
G1 X131.095 Y113.634 E3.56333
G1 X131.671 Y112.252 E3.63281
G1 X131.964 Y110.837 E3.69984
G1 X131.959 Y109.109 E3.78
G1 X131.672 Y107.752 E3.84435
G1 X130.971 Y106.144 E3.92573
G1 X129.446 Y103.859 E4.05318
G1 X127.708 Y101.86 E4.17606
G1 X125.649 Y100.028 E4.30395
G1 X123.35 Y98.463 E4.43294
G1 X120.781 Y97.175 E4.56627
G1 X118.346 Y96.325 E4.68594
G1 X115.847 Y95.777 E4.80463
G1 X114.371 Y95.599 E4.87357
G1 X112.932 Y95.524 E4.94045
G1 X111.274 Y95.558 E5.01736
G1 X87.498 Y97.018 E6.12249
G1 X86.418 Y97.205 E6.17333
G1 X85.37 Y97.537 E6.22434
G1 X84.398 Y97.995 E6.27418
G1 X83.469 Y98.605 E6.32575
G1 X83.713 Y98.977 F24000
G1 F12000
G1 X82.496 Y100.134 E6.40362
G1 X81.618 Y101.436 E6.4765
G1 X81.013 Y102.923 E6.55097
G1 X80.724 Y104.516 E6.6261
G1 X80.5 Y109.892 E6.87574
G1 X80.735 Y115.62 E7.14168
G1 X80.904 Y116.66 E7.19053
G1 X81.179 Y117.584 E7.23529
G1 X81.623 Y118.575 E7.28563
G1 X82.163 Y119.438 E7.3329
G1 X83.037 Y120.445 E7.39476
G1 X84.287 Y121.421 E7.4683
G1 X85.62 Y122.082 E7.53734
G1 X87.148 Y122.487 E7.61068
G1 X110.814 Y123.966 E8.71074
G1 X112.751 Y124.032 E8.80068
G1 X114.572 Y123.935 E8.88525
G1 X116.386 Y123.677 E8.97026
G1 X118.256 Y123.237 E9.05938
G1 X119.997 Y122.659 E9.14448
G1 X121.327 Y122.095 E9.21153
G1 X122.894 Y121.285 E9.29338
G1 X126.378 Y118.975 E9.4873
G1 X127.208 Y118.288 E9.53726
G1 X127.874 Y117.609 E9.58141
G1 X128.546 Y116.861 E9.62804
G1 X129.193 Y115.971 E9.67911
G1 X130.699 Y113.427 E9.81625
G1 X131.244 Y112.123 E9.88183
G1 X131.521 Y110.785 E9.94521
G1 X131.516 Y109.159 E10.02062
G1 X131.244 Y107.88 E10.08132
G1 X130.96 Y107.113 E10.11924
G1 X130.434 Y106.108 E10.17185
G1 X129.021 Y104.04 E10.28807
G1 X127.18 Y101.964 E10.41677
G1 X125.306 Y100.327 E10.53222
G1 X122.982 Y98.765 E10.66212
G1 X120.606 Y97.586 E10.7852
G1 X118.228 Y96.756 E10.90205
G1 X115.783 Y96.219 E11.01819
G1 X112.922 Y95.97 E11.15141
G1 X111.301 Y96.004 E11.2266
G1 X87.543 Y97.462 E12.3309
G1 X86.522 Y97.639 E12.37898
G1 X85.531 Y97.953 E12.4272
G1 X84.612 Y98.387 E12.47433
G1 X83.763 Y98.945 E12.52144
G1 X84.033 Y99.293 F24000
G1 F12000
G1 X82.898 Y100.35 E12.59342
G1 X82.009 Y101.65 E12.66646
G1 X81.441 Y103.051 E12.73662
G1 X81.169 Y104.554 E12.80747
G1 X80.946 Y109.9 E13.05569
G1 X81.18 Y115.582 E13.31953
G1 X81.339 Y116.562 E13.36559
G1 X81.599 Y117.435 E13.40783
G1 X82.018 Y118.367 E13.45523
G1 X82.527 Y119.18 E13.49973
G1 X83.349 Y120.126 E13.55789
G1 X84.524 Y121.042 E13.627
G1 X85.778 Y121.664 E13.69195
G1 X87.222 Y122.046 E13.76126
G1 X112.744 Y123.586 E14.94742
G1 X114.533 Y123.491 E15.03057
G1 X116.307 Y123.238 E15.11369
G1 X118.139 Y122.806 E15.20101
G1 X119.842 Y122.24 E15.28427
G1 X121.136 Y121.692 E15.34946
G1 X122.671 Y120.899 E15.4296
G1 X126.125 Y118.608 E15.62191
G1 X127.546 Y117.306 E15.71131
G1 X128.21 Y116.567 E15.75738
G1 X128.81 Y115.742 E15.80473
G1 X130.304 Y113.22 E15.94072
G1 X130.817 Y111.993 E16.00239
G1 X131.077 Y110.733 E16.06212
G1 X131.072 Y109.21 E16.13278
G1 X130.816 Y108.007 E16.18983
G1 X130.549 Y107.288 E16.22542
G1 X130.048 Y106.333 E16.27542
G1 X128.67 Y104.316 E16.38877
G1 X126.865 Y102.28 E16.51499
G1 X125.036 Y100.682 E16.62766
G1 X122.762 Y99.153 E16.75478
G1 X120.43 Y97.996 E16.87555
G1 X118.11 Y97.186 E16.98956
G1 X115.719 Y96.66 E17.10316
G1 X112.912 Y96.416 E17.23386
G1 X111.329 Y96.45 E17.30733
G1 X87.709 Y97.894 E18.40516
G1 X86.731 Y98.048 E18.45107
G1 X85.775 Y98.337 E18.49742
G1 X84.826 Y98.779 E18.54596
G1 X84.084 Y99.26 E18.58701
G1 X84.326 Y99.633 F24000
G1 F12000
G1 X83.238 Y100.639 E18.65573
G1 X82.401 Y101.864 E18.72456
G1 X81.868 Y103.179 E18.7904
G1 X81.613 Y104.591 E18.85698
G1 X81.393 Y109.907 E19.10379
G1 X81.625 Y115.544 E19.36552
G1 X81.775 Y116.464 E19.40878
G1 X82.02 Y117.285 E19.44852
G1 X82.413 Y118.159 E19.49296
G1 X82.891 Y118.921 E19.5347
G1 X83.661 Y119.807 E19.58916
G1 X84.761 Y120.664 E19.65385
G1 X85.936 Y121.247 E19.71471
G1 X87.296 Y121.606 E19.77997
G1 X112.736 Y123.14 E20.96233
G1 X114.495 Y123.046 E21.04407
G1 X116.228 Y122.799 E21.12529
G1 X118.022 Y122.375 E21.21081
G1 X119.688 Y121.821 E21.29222
G1 X120.945 Y121.289 E21.35557
G1 X122.447 Y120.512 E21.434
G1 X125.872 Y118.24 E21.62469
G1 X127.219 Y117.003 E21.70952
G1 X128.427 Y115.513 E21.79852
G1 X129.909 Y113.013 E21.93337
G1 X130.39 Y111.864 E21.99112
G1 X130.634 Y110.68 E22.04721
G1 X130.629 Y109.26 E22.11312
G1 X130.423 Y108.253 E22.16079
G1 X130.188 Y107.579 E22.19389
G1 X129.569 Y106.404 E22.2555
G1 X128.105 Y104.32 E22.37368
G1 X126.476 Y102.525 E22.48614
G1 X124.442 Y100.792 E22.6101
G1 X122.542 Y99.542 E22.71563
G1 X120.255 Y98.407 E22.83407
G1 X117.992 Y97.617 E22.94527
G1 X115.654 Y97.102 E23.05631
G1 X112.902 Y96.863 E23.18449
G1 X111.356 Y96.895 E23.25624
G1 X87.754 Y98.338 E24.35324
G1 X86.835 Y98.482 E24.39639
G1 X85.936 Y98.754 E24.43996
G1 X85.04 Y99.17 E24.48578
G1 X84.376 Y99.601 E24.5225
G92 E0
; printing object benchy.stl id:0 copy 0
EXCLUDE_OBJECT_START NAME=benchy_stl_id_0_copy_0
G1 X115.044 Y111.216 F24000
;TYPE:Internal perimeter
G1 F9000
G1 X115.154 Y111.497 E0.01398
G1 X114.793 Y111.68 E0.03273
G1 X114.612 Y111.396 E0.04839
G1 X114.409 Y111.026 E0.06795
G1 X114.327 Y110.891 E0.07529
G1 X114.203 Y110.699 E0.08589
G1 X114.61 Y110.025 E0.1224
G1 X114.852 Y110.702 E0.15576
G1 X114.988 Y111.071 E0.174
G1 X115.023 Y111.16 E0.17842
G1 X115.431 Y112.261 F24000
G1 F9000
G1 X115.595 Y112.612 E0.1964
G1 X115.638 Y112.713 E0.20149
G1 X115.549 Y112.887 E0.21056
G1 X115.42 Y113.159 E0.22451
G1 X115.062 Y113.065 E0.24167
G1 X115.093 Y112.623 E0.26222
G1 X115.069 Y112.359 E0.27451
G1 X115.373 Y112.277 E0.28912
G92 E0
G1 X118.47 Y112.713 F24000
G1 F12000
G1 X118.804 Y112.732 E0.01551
G1 X118.861 Y112.98 E0.02734
G1 X118.901 Y113.104 E0.03335
G1 X118.949 Y113.221 E0.03923
G1 X119.023 Y113.37 E0.04694
G1 X119.141 Y113.529 E0.05613
G1 X119.321 Y113.714 E0.06809
G1 X119.481 Y113.82 E0.07703
G1 X119.71 Y113.932 E0.08883
G1 X119.981 Y113.988 E0.10166
G1 X120.222 Y114 E0.11284
G1 X120.358 Y113.996 E0.11917
G1 X120.654 Y113.972 E0.13294
G1 X120.742 Y113.969 E0.13705
G1 X120.847 Y113.969 E0.14192
G1 X121.058 Y113.974 E0.15169
G1 X121.154 Y114.277 E0.16645
G1 X120.877 Y114.484 E0.18249
G1 X120.578 Y114.699 E0.19958
G1 X120.389 Y114.828 E0.21019
G1 X120.092 Y115.022 E0.22667
G1 X119.687 Y115.27 E0.24871
G1 X119.483 Y115.388 E0.25966
G1 X119.277 Y115.503 E0.27058
G1 X118.874 Y115.715 E0.29171
G1 X118.745 Y115.78 E0.2984
G1 X118.416 Y115.937 E0.31533
G1 X118.051 Y116.099 E0.33384
G1 X117.627 Y116.272 E0.35508
G1 X117.194 Y116.431 E0.37648
G1 X116.926 Y116.522 E0.38962
G1 X116.583 Y116.628 E0.4063
G1 X116.42 Y116.27 E0.42455
G1 X116.755 Y116.064 E0.44276
G1 X116.874 Y115.975 E0.44968
G1 X116.976 Y115.888 E0.45591
G1 X117.085 Y115.783 E0.46291
G1 X117.25 Y115.585 E0.47489
G1 X117.403 Y115.351 E0.48786
G1 X117.543 Y115.092 E0.50153
G1 X117.662 Y114.831 E0.5148
G1 X117.778 Y114.558 E0.52859
G1 X118.023 Y113.929 E0.55987
G1 X118.302 Y113.186 E0.5967
G1 X118.45 Y112.77 E0.61718
G92 E0
G1 X120.094 Y110.244 F24000
G1 F9000
G1 X119.667 Y110.748 E0.03063
G1 X119.476 Y110.998 E0.04523
G1 X119.143 Y110.823 E0.06266
G1 X119.202 Y110.637 E0.07173
G1 X119.289 Y110.325 E0.08674
G1 X119.371 Y109.987 E0.10289
G1 X120.037 Y110.224 E0.13573
G92 E0
G1 X122.77 Y111.106 F24000
G1 F9000
G1 X123.071 Y110.717 E0.02279
G1 X123.331 Y110.355 E0.04351
G1 X123.468 Y110.156 E0.05469
G1 X123.604 Y109.938 E0.06663
G1 X123.677 Y109.8 E0.07384
G1 X123.765 Y109.578 E0.08493
G1 X123.814 Y109.401 E0.09345
G1 X123.842 Y109.242 E0.10097
G1 X123.855 Y109.023 E0.11111
G1 X124.163 Y108.939 E0.12596
G1 X124.256 Y109.076 E0.13363
G1 X124.554 Y109.549 E0.15958
G1 X124.706 Y109.813 E0.1737
G1 X124.748 Y109.946 E0.18019
G1 X124.747 Y110.06 E0.18547
G1 X124.704 Y110.191 E0.19188
G1 X124.674 Y110.249 E0.19492
G1 X124.563 Y110.437 E0.20504
G1 X124.445 Y110.629 E0.21548
G1 X124.273 Y110.899 E0.23033
G1 X124.035 Y111.254 E0.25017
G1 X123.885 Y111.469 E0.26231
G1 X123.627 Y111.889 E0.28519
G1 X123.428 Y111.658 E0.29935
G1 X123.209 Y111.478 E0.31251
G1 X122.964 Y111.383 E0.32468
G1 X122.637 Y111.279 E0.3406
G1 X122.734 Y111.154 E0.34792
G92 E0
G1 X109 Y110.034 F24000
G1 F12000
G1 X109.008 Y109.812 E0.01029
G1 X109.005 Y109.612 E0.0196
G1 X108.995 Y109.423 E0.02836
G1 X108.975 Y109.234 E0.03719
G1 X108.96 Y109.095 E0.0437
G1 X108.882 Y108.707 E0.06203
G1 X108.796 Y108.395 E0.07704
G1 X108.682 Y108.09 E0.09216
G1 X108.55 Y107.813 E0.1064
G1 X108.47 Y107.668 E0.11408
G1 X108.386 Y107.534 E0.12142
G1 X108.222 Y107.301 E0.13465
G1 X108.115 Y107.175 E0.14232
G1 X108.01 Y107.061 E0.14948
G1 X107.854 Y106.912 E0.15951
G1 X107.742 Y106.819 E0.16626
G1 X107.624 Y106.728 E0.17315
G1 X107.492 Y106.64 E0.18053
G1 X107.251 Y106.505 E0.19336
G1 X106.994 Y106.396 E0.20629
G1 X106.719 Y106.311 E0.21967
G1 X106.554 Y106.273 E0.22749
G1 X106.25 Y106.216 E0.24186
G1 X105.894 Y106.175 E0.2585
G1 X105.492 Y106.155 E0.27717
G1 X105.271 Y106.151 E0.28739
G1 X104.811 Y106.155 E0.30874
G1 X104.343 Y106.139 E0.33047
G1 X104.225 Y106.139 E0.33593
G1 X104.098 Y106.142 E0.34182
G1 X103.914 Y106.159 E0.3504
G1 X103.781 Y106.187 E0.35672
G1 X103.651 Y106.219 E0.36294
G1 X103.42 Y106.311 E0.37447
G1 X103.273 Y106.391 E0.38223
G1 X103.087 Y106.535 E0.39314
G1 X102.957 Y106.675 E0.40203
G1 X102.87 Y106.809 E0.40941
G1 X102.674 Y107.18 E0.42889
G1 X102.381 Y106.797 E0.45127
G1 X102.275 Y106.683 E0.45848
G1 X102.174 Y106.589 E0.46489
G1 X102.062 Y106.495 E0.47164
G1 X101.931 Y106.402 E0.47913
G1 X101.717 Y106.278 E0.49061
G1 X101.566 Y106.206 E0.49836
G1 X101.418 Y106.15 E0.50566
G1 X101.277 Y106.105 E0.51254
G1 X101.025 Y106.044 E0.5246
G1 X100.706 Y105.996 E0.53954
G1 X100.529 Y105.982 E0.54781
G1 X100.365 Y105.975 E0.55542
G1 X100.2 Y105.975 E0.56305
G1 X100.026 Y105.98 E0.57112
G1 X99.812 Y106 E0.58109
G1 X99.649 Y106.021 E0.58872
G1 X99.375 Y106.079 E0.60171
G1 X99.22 Y106.124 E0.60919
G1 X99.071 Y106.178 E0.61655
G1 X98.934 Y106.24 E0.62356
G1 X98.782 Y106.32 E0.6315
G1 X98.563 Y106.472 E0.64387
G1 X98.266 Y106.708 E0.66148
G1 X98.05 Y106.479 E0.67608
G1 X97.89 Y106.354 E0.68551
G1 X97.652 Y106.248 E0.69758
G1 X97.432 Y106.193 E0.70813
G1 X97.299 Y106.173 E0.71437
G1 X97.158 Y106.16 E0.72091
G1 X96.858 Y106.159 E0.73486
G1 X96.41 Y106.152 E0.75565
G1 X95.951 Y106.149 E0.77692
G1 X95.515 Y106.151 E0.79715
G1 X94.481 Y106.149 E0.8451
G1 X94.084 Y106.159 E0.86354
G1 X93.992 Y106.159 E0.86783
G1 X93.91 Y106.156 E0.87161
G1 X93.513 Y106.124 E0.89012
G1 X93.256 Y106.13 E0.90204
G1 X93.003 Y106.182 E0.91403
G1 X92.845 Y106.244 E0.92189
G1 X92.686 Y106.328 E0.93021
G1 X92.545 Y106.428 E0.93827
G1 X92.426 Y106.544 E0.94593
G1 X92.211 Y106.815 E0.96199
G1 X91.96 Y106.577 E0.97804
G1 X91.837 Y106.477 E0.98538
G1 X91.701 Y106.379 E0.99316
G1 X91.543 Y106.289 E1.00162
G1 X91.296 Y106.176 E1.01423
G1 X91.014 Y106.084 E1.02796
G1 X90.845 Y106.046 E1.03601
G1 X90.686 Y106.019 E1.04351
G1 X90.527 Y105.998 E1.05093
G1 X90.372 Y105.984 E1.05816
G1 X90.193 Y105.977 E1.06645
G1 X89.945 Y105.979 E1.07795
G1 X89.771 Y105.987 E1.08604
G1 X89.479 Y106.025 E1.09972
G1 X89.323 Y106.053 E1.10708
G1 X89.163 Y106.091 E1.11468
G1 X89.009 Y106.138 E1.12215
G1 X88.73 Y106.237 E1.13589
G1 X88.45 Y106.373 E1.15035
G1 X88.196 Y106.529 E1.16415
G1 X88.061 Y106.624 E1.17181
G1 X87.938 Y106.722 E1.17912
G1 X87.509 Y107.104 E1.20577
G1 X87.512 Y105.117 E1.29796
G1 X87.546 Y104.855 E1.3102
G1 X87.588 Y104.725 E1.31654
G1 X87.647 Y104.608 E1.32263
G1 X87.815 Y104.414 E1.33454
G1 X87.906 Y104.35 E1.33971
G1 X88.048 Y104.284 E1.34695
G1 X88.173 Y104.249 E1.353
G1 X88.341 Y104.229 E1.36081
G1 X102.74 Y103.353 E2.03009
G1 X111.712 Y102.804 E2.44709
G1 X111.965 Y102.791 E2.45883
G1 X112.273 Y102.782 E2.47314
G1 X112.779 Y102.781 E2.49662
G1 X113.04 Y102.787 E2.50873
G1 X113.436 Y102.807 E2.52709
G1 X113.82 Y102.836 E2.54496
G1 X114.082 Y102.862 E2.55722
G1 X114.344 Y102.894 E2.56944
G1 X114.793 Y102.959 E2.59049
G1 X115.182 Y103.028 E2.60883
G1 X115.649 Y103.126 E2.63097
G1 X116.076 Y103.23 E2.65133
G1 X116.422 Y103.324 E2.668
G1 X116.691 Y103.404 E2.68102
G1 X116.95 Y103.486 E2.69358
G1 X117.195 Y103.569 E2.70562
G1 X117.516 Y103.687 E2.72145
G1 X117.938 Y103.854 E2.74253
G1 X118.173 Y103.954 E2.75437
G1 X118.623 Y104.16 E2.7773
G1 X119.07 Y104.386 E2.80056
G1 X119.388 Y104.558 E2.81735
G1 X119.615 Y104.687 E2.82945
G1 X119.895 Y104.855 E2.84462
G1 X120.178 Y105.033 E2.86012
G1 X120.506 Y105.253 E2.87844
G1 X120.867 Y105.509 E2.89895
G1 X121.316 Y105.854 E2.92524
G1 X121.582 Y106.072 E2.94121
G1 X121.934 Y106.379 E2.96285
G1 X122.185 Y106.611 E2.97869
G1 X122.371 Y106.79 E2.99068
G1 X122.514 Y106.936 E3.00017
G1 X122.58 Y106.998 E3.00437
G1 X123.165 Y107.621 E3.04404
G1 X122.472 Y107.585 E3.07628
G1 X122.349 Y107.585 E3.08197
G1 X121.97 Y107.591 E3.09957
G1 X120.532 Y107.589 E3.16626
G1 X120.315 Y107.611 E3.17639
G1 X120.139 Y107.639 E3.18465
G1 X119.881 Y107.703 E3.19697
G1 X119.666 Y107.804 E3.208
G1 X119.455 Y107.94 E3.21965
G1 X119.261 Y108.116 E3.23179
G1 X119.117 Y107.961 E3.2416
G1 X119.014 Y107.873 E3.24788
G1 X118.805 Y107.724 E3.25979
G1 X118.603 Y107.664 E3.26954
G1 X118.448 Y107.636 E3.27685
G1 X118.306 Y107.634 E3.28345
G1 X118.134 Y107.648 E3.29144
G1 X117.884 Y107.726 E3.30359
G1 X117.719 Y107.817 E3.31235
G1 X117.509 Y107.97 E3.32438
G1 X117.336 Y108.17 E3.33668
G1 X117.053 Y108.564 E3.3592
G1 X116.821 Y108.182 E3.37995
G1 X116.63 Y107.971 E3.39317
G1 X116.404 Y107.812 E3.40596
G1 X116.27 Y107.743 E3.41297
G1 X116.151 Y107.692 E3.41898
G1 X115.902 Y107.63 E3.43086
G1 X115.725 Y107.614 E3.43912
G1 X115.476 Y107.626 E3.45067
G1 X115.329 Y107.65 E3.45758
G1 X115.059 Y107.731 E3.47068
G1 X114.812 Y107.91 E3.48481
G1 X114.652 Y108.081 E3.49566
G1 X114.416 Y107.864 E3.51052
G1 X114.272 Y107.77 E3.51853
G1 X114.139 Y107.709 E3.5253
G1 X114.005 Y107.663 E3.53186
G1 X113.81 Y107.625 E3.54107
G1 X113.589 Y107.639 E3.55135
